X:1
T:Die schöne Müllerin (D.795)
T:Das Wandern
T:1. Das Wandern
T:Franz Schubert
T:Die schöne Müllerin, D.795
T:Wilhelm Müller
T:Das sehn wir auch den Rädern ab, Den Rädern, Die gar nicht gerne stille stehn, Die sich mein Tag nicht müde gehn, Die Räder.
T:O Wandern, Wandern, meine Lust, O Wandern! Herr Meister und Frau Meisterin, Lasst mich in Frieden weiter ziehn Und wandern.
T: Die Steine selbst, so schwer sie sind, Die Steine, Sie tanzen mit den muntern Reihn, Und wollen gar noch schneller sein, Die Steine.
T:OpenScore (CC0)
T:OpenScore (CC0)
C:Franz Schubert
Z:Wilhelm Müller
Z:OpenScore (CC0)
%%score 1 { 2 | 3 }
L:1/8
Q:1/4=87
M:2/4
K:Bb
V:1 treble nm="Singstimme"
V:2 bass nm="Pianoforte"
V:3 bass 
V:1
"^Mässig geschwind" z4 | z4 | z4 | z2 !fermata!z F | F B A e | d/f/ d/B/ F d | c>A B z | z2 z F | %8
w: |||Das|Wan- dern ist des|Mül- * lers * Lust, das|Wan- * dern,|das|
w: |||Vom|Was- ser ha- ben|wir's * ge- * lernt, vom|Was- * ser,|vom|
 F B A e | d/f/ d/B/ F d | c>A B z | z2 z B/c/ | d c B A | B/c/ B/A/ G A/B/ | c B A G | %15
w: Wan- dern ist des|Mül- * lers * Lust, das|Wan- * dern.|Das *|muss ein schlech- ter|Mül- * ler * sein, dem *|nie- mals fiel das|
w: Was- ser ha- ben|wir's * ge- * lernt, vom|Was- * ser.|Das *|hat nicht Rast bei|tag * und * Nacht, ist *|stets auf Wan- der-|
 A/B/ A/G/ F F | !>!e2 d e/d/ | !>!c2 B!pp! F | !>!e2 d e/d/ | !>!c2 B z :| %20
w: Wan- * dern * ein, das|Wan- dern das *|Wan- dern das|Wan- dern das *|Wan- dern.|
w: schaft * be- * dacht, das|Was- ser, das *|Was- ser, das|Was- ser, das *|Was- ser.|
V:2
!mf! D,/F,/B,/F,/ D,/F,/[B,D]/F,/ | E,/F,/[A,F]/F,/ [B,D]/F,/D,/F,/ | %2
 D,/F,/B,/F,/ D,/F,/[B,D]/F,/ | E,/F,/[A,F]/F,/"_Fine." !fermata![D,B,] z | %4
!p! D,/F,/B,/F,/ C,/F,/A,/F,/ | D,/F,/B,/F,/ D,/F,/B,/F,/ | E,/F,/A,/F,/!mf! D,/F,/[B,D]/F,/ | %7
 E,/F,/[A,F]/F,/ [B,D]/F,/D,/F,/ |!p! D,/F,/B,/F,/ C,/F,/A,/F,/ | D,/F,/B,/F,/ D,/F,/B,/F,/ | %10
 E,/F,/A,/F,/ D,/F,/[B,D]/F,/ | E,/F,/[A,F]/F,/ [B,D]/F,/D,/F,/ | D,/D/D,/D/ D,/D/D,/D/ | %13
 D,/D/D,/D/ D,/D/C,/C/ | C,/C/C,/C/ C,/C/C,/C/ | C,/C/C,/C/ C,/C/C,/C/ | %16
 C,/F,/A,/F,/ D,/F,/B,/F,/ | E,/F,/A,/F,/ D,/F,/B,/F,/ |!pp! C,/F,/A,/F,/ D,/F,/B,/F,/ | %19
 E,/F,/A,/F,/ [D,B,]/F,/D,/F,/ :| %20
V:3
 B,,,B,,B,,,B,, | F,,,F,,B,,,B,, | B,,,B,,B,,,B,, | F,,,F,,!fermata!B,,, z | B,,,B,,B,,,B,, | %5
 B,,,B,,B,,,B,, | F,,,F,,B,,,B,, | F,,,F,,B,,, z | B,,,B,,B,,,B,, | B,,,B,,B,,,B,, | %10
 F,,,F,,B,,,B,, | F,,,F,,B,,, z | .[B,,,B,,].[A,,,A,,].[G,,,G,,].[^F,,,^F,,] | %13
 [G,,,G,,]>[A,,,A,,] [B,,,B,,][A,,,A,,]/[G,,,G,,]/ | [A,,,A,,][G,,,G,,][F,,,F,,][=E,,,=E,,] | %15
 [F,,,F,,]>[G,,,G,,] [A,,,A,,][A,,,A,,] | F,,,F,,B,,,B,, | F,,,F,,B,,,B,, | F,,,F,,B,,,B,, | %19
 F,,,F,,B,,, z :| %20

